Front-end-Projects/github_page/Images/Icon=Github.svg

<svg width="46" height="45" viewBox="0 0 46 45" fill="none" xmlns="http://www.w3.org/2000/svg">
<path d="M23 0C10.3002 0 0 10.2983 0 23C0 33.1622 6.5895 41.7833 15.7301 44.8251C16.8782 45.0378 17.25 44.3248 17.25 43.7192V39.4373C10.8522 40.8288 9.52008 36.7233 9.52008 36.7233C8.47358 34.0649 6.96517 33.3577 6.96517 33.3577C4.87792 31.9298 7.12425 31.9604 7.12425 31.9604C9.43383 32.1214 10.649 34.3313 10.649 34.3313C12.6998 37.8465 16.0291 36.8307 17.342 36.2423C17.5471 34.7568 18.1432 33.741 18.8025 33.1679C13.6946 32.5833 8.32408 30.6111 8.32408 21.8002C8.32408 19.2874 9.223 17.2366 10.6931 15.6266C10.4554 15.0458 9.66767 12.7056 10.9173 9.53925C10.9173 9.53925 12.8493 8.92208 17.2442 11.8968C19.0785 11.3869 21.045 11.132 23 11.1224C24.955 11.132 26.9234 11.3869 28.7615 11.8968C33.1526 8.92208 35.0807 9.53925 35.0807 9.53925C36.3323 12.7075 35.5446 15.0478 35.3069 15.6266C36.7827 17.2366 37.674 19.2893 37.674 21.8002C37.674 30.6341 32.2939 32.5795 27.1726 33.1488C27.9967 33.8618 28.75 35.2609 28.75 37.4076V43.7192C28.75 44.3306 29.118 45.0493 30.2852 44.8232C39.4182 41.7776 46 33.1583 46 23C46 10.2983 35.7017 0 23 0Z" fill="white"/>
</svg>

<svg xmlns="http://www.w3.org/2000/svg" width="46" height="45" fill="none"><path fill="#fff" d="M23 0C10.3 0 0 10.298 0 23c0 10.162 6.59 18.783 15.73 21.825 1.148.213 1.52-.5 1.52-1.106v-4.282c-6.398 1.392-7.73-2.714-7.73-2.714-1.046-2.658-2.555-3.365-2.555-3.365-2.087-1.428.16-1.398.16-1.398 2.309.161 3.524 2.371 3.524 2.371 2.05 3.515 5.38 2.5 6.693 1.911.205-1.485.801-2.501 1.46-3.074C13.695 32.583 8.324 30.61 8.324 21.8c0-2.513.899-4.563 2.37-6.173-.239-.581-1.026-2.921.223-6.088 0 0 1.932-.617 6.327 2.358 1.834-.51 3.801-.765 5.756-.775 1.955.01 3.923.265 5.762.775 4.39-2.975 6.319-2.358 6.319-2.358 1.251 3.168.464 5.509.226 6.088 1.476 1.61 2.367 3.662 2.367 6.173 0 8.834-5.38 10.78-10.501 11.349.824.713 1.577 2.112 1.577 4.259v6.311c0 .612.368 1.33 1.535 1.104C39.418 41.778 46 33.158 46 23 46 10.298 35.702 0 23 0Z"/></svg>
